; generated by PrusaSlicer 2.4.1+win64 on 2022-04-24 at 07:39:33 UTC


;
;

;
;
; 

; external perimeters extrusion width = 0.60mm
; perimeters extrusion width = 0.60mm
; infill extrusion width = 0.60mm
; solid infill extrusion width = 0.60mm
; top infill extrusion width = 0.60mm

M73 P0 R58
M107
;TYPE:Custom
M190 S90
M109 S225

G28 ; home all axes
G92 E0
G1 Z5 F5000 ; lift nozzle

M117 Wiping 0%...

G1 X2 Y165 F6000
G1 Z0.3 F450
G1 X2 Y15 E16.6 F1500
G92 E0
G1 E-0.5 F2400
G92 E-0.5
G21 ; set units to millimeters
G90 ; use absolute coordinates
M82 ; use absolute distances for extrusion
G92 E0
; Filament gcode
M900 K0.04 ; set K-factor
M207 F1200 S1.0 Z0.5
M208 F1200 S0.0
M107
;LAYER_CHANGE
;Z:0.25
;HEIGHT:0.25
G1 Z.25 F9000
M117 Layer 1
G10 ; retract
G92 E0
G1 Z.75
G1 X125.23 Y96.413
G1 Z.25
G11 ; unretract
G92 E0
;TYPE:Skirt/Brim
;WIDTH:0.6
G1 F2940
G1 X126.962 Y95.059 E.12485
G1 X129.625 Y94.367 E.28108
G1 X159.525 Y93.567 E1.97961
G1 X169.861 Y93.567 E2.56657
G1 X197.961 Y94.367 E4.16291
G1 X200.112 Y94.825 E4.28777
G1 X201.959 Y96.016 E4.41262
G1 X203.264 Y97.786 E4.53748
G1 X203.88 Y100.457 E4.69313
G1 X203.88 Y124.152 E6.03866
G1 X203.484 Y126.314 E6.16352
G1 X202.345 Y128.195 E6.28837
G1 X199.915 Y129.861 E6.4557
G1 X176.815 Y138.466 E7.85553
G1 X175.662 Y138.771 E7.92321
G1 X170.553 Y139.595 E8.21712
G1 X169.688 Y139.65 E8.26634
G1 X159.525 Y139.648 E8.84346
G1 X129.625 Y138.848 E10.54198
G1 X127.474 Y138.393 E10.66683
G1 X125.624 Y137.205 E10.79169
G1 X124.316 Y135.437 E10.91654
G1 X123.695 Y132.757 E11.07277
G1 X123.695 Y100.457 E12.90697
G1 X124.092 Y98.294 E13.03183
G1 X125.184 Y96.49 E13.15157
G1 X125.664 Y96.799 F9000
G1 F2940
G1 X125.77 Y96.633 E13.16275
G1 X127.477 Y95.415 E13.28182
G1 X129.639 Y94.913 E13.40788
G1 X159.539 Y94.113 E15.10641
G1 X169.846 Y94.113 E15.69166
G1 X197.946 Y94.913 E17.288
G1 X199.993 Y95.368 E17.40708
G1 X201.724 Y96.55 E17.52616
G1 X202.894 Y98.291 E17.64523
G1 X203.334 Y100.457 E17.77076
G1 X203.334 Y124.152 E19.1163
G1 X202.938 Y126.211 E19.23537
G1 X201.805 Y127.976 E19.35445
G1 X199.724 Y129.349 E19.49606
G1 X176.624 Y137.954 E20.89589
G1 X175.575 Y138.232 E20.9575
G1 X170.481 Y139.053 E21.25048
G1 X159.539 Y139.101 E21.87184
G1 X129.639 Y138.301 E23.57037
G1 X127.592 Y137.85 E23.68944
G1 X125.858 Y136.671 E23.80852
G1 X124.686 Y134.932 E23.9276
G1 X124.241 Y132.757 E24.05366
G1 X124.241 Y100.457 E25.88786
G1 X124.638 Y98.398 E26.00693
G1 X125.615 Y96.874 E26.10973
G10 ; retract
G92 E0
G1 Z.75 F9000
G1 X156.164 Y102.396
G1 Z.25
G11 ; unretract
G92 E0
;TYPE:Perimeter
G1 F1260
G1 X172.749 Y102.396 E.94176
G1 X172.749 Y102.918 E.9714
G1 X157.394 Y102.918 E1.84334
G1 X156.247 Y102.431 E1.91408
G1 X153.479 Y101.85 F9000
G1 F2520
G1 X173.295 Y101.85 E3.03936
G1 X173.295 Y103.464 E3.13105
G1 X157.283 Y103.464 E4.04033
G1 X153.562 Y101.885 E4.26987
G10 ; retract
G92 E0
G1 Z.75 F9000
G1 X193.227 Y102.396
G1 Z.25
G11 ; unretract
G92 E0
G1 F2520
G1 X195.849 Y102.396 E.14889
G1 X195.849 Y122.213 E1.2742
G1 X193.227 Y122.213 E1.42309
G1 X193.227 Y102.486 E2.54329
G1 X192.68 Y101.85 F9000
G1 F2520
G1 X196.395 Y101.85 E2.75423
G1 X196.395 Y122.759 E3.94159
G1 X192.68 Y122.759 E4.15253
G1 X192.68 Y101.94 E5.33478
G10 ; retract
G92 E0
G1 Z.75 F9000
G1 X131.727 Y102.396
G1 Z.25
G11 ; unretract
G92 E0
G1 F2520
G1 X134.349 Y102.396 E.14889
G1 X134.349 Y130.818 E1.76287
G1 X131.727 Y130.818 E1.91176
G1 X131.727 Y102.486 E3.52062
G1 X131.18 Y101.85 F9000
G1 F2520
G1 X134.895 Y101.85 E3.73156
G1 X134.895 Y131.364 E5.40759
G1 X131.18 Y131.364 E5.61853
G1 X131.18 Y101.94 E7.28945
G1 X130.634 Y101.303 F9000
G1 F2520
G1 X159.663 Y101.303 E8.93791
G1 X159.696 Y100.928 E8.95931
G1 X159.746 Y101.303 E8.9808
G1 X169.663 Y101.303 E9.54399
G1 X169.696 Y100.928 E9.56539
G1 X169.746 Y101.303 E9.58688
G1 X196.941 Y101.303 E11.13124
G1 X196.941 Y123.305 E12.38065
M73 P0 R57
G1 X192.134 Y123.305 E12.65364
G1 X192.134 Y102.011 E13.86289
G1 X173.841 Y102.011 E14.90166
G1 X173.841 Y104.011 E15.01524
G1 X157.172 Y104.011 E15.96185
G1 X152.46 Y102.011 E16.25252
G1 X135.441 Y102.011 E17.21894
G1 X135.441 Y131.203 E18.87669
G1 X173.134 Y131.203 E21.01713
G1 X173.134 Y129.203 E21.1307
M73 P1 R57
G1 X173.841 Y129.203 E21.17086
G1 X173.841 Y131.911 E21.3246
G1 X169.712 Y131.911 E21.55908
G1 X169.688 Y132.19 E21.57503
G1 X169.663 Y131.911 E21.59097
G1 X159.778 Y131.911 E22.15234
G1 X159.688 Y132.42 E22.18173
G1 X159.598 Y131.911 E22.21111
G1 X130.634 Y131.911 E23.85585
G1 X130.634 Y101.393 E25.58882
G1 X130.488 Y100.757 F9000
;TYPE:External perimeter
G1 F1764
G1 X159.163 Y100.757 E27.21717
G1 X159.196 Y100.377 E27.23883
G1 X159.235 Y100.253 E27.24619
G1 X159.337 Y100.107 E27.25636
G1 X159.484 Y100.004 E27.26651
G1 X159.688 Y99.958 E27.27837
G1 X159.892 Y100.004 E27.29024
G1 X160.038 Y100.107 E27.30039
G1 X160.144 Y100.259 E27.31092
G1 X160.167 Y100.322 E27.31473
G1 X160.225 Y100.757 E27.33967
G1 X169.163 Y100.757 E27.84722
G1 X169.196 Y100.377 E27.86889
G1 X169.235 Y100.253 E27.87624
G1 X169.341 Y100.101 E27.88679
G1 X169.517 Y99.988 E27.89866
G1 X169.724 Y99.962 E27.91051
G1 X169.897 Y100.008 E27.92068
G1 X170.038 Y100.107 E27.93045
G1 X170.144 Y100.259 E27.94098
G1 X170.167 Y100.322 E27.94479
G1 X170.225 Y100.757 E27.96972
G1 X197.488 Y100.757 E29.5179
G1 X197.488 Y123.852 E30.82936
G1 X191.588 Y123.852 E31.1644
G1 X191.588 Y102.557 E32.37364
G1 X174.388 Y102.557 E33.35037
G1 X174.388 Y104.557 E33.46394
G1 X157.06 Y104.557 E34.4479
G1 X152.349 Y102.557 E34.73856
G1 X135.988 Y102.557 E35.66765
G1 X135.988 Y130.657 E37.26335
G1 X172.588 Y130.657 E39.34173
G1 X172.588 Y128.657 E39.4553
G1 X174.388 Y128.657 E39.55752
G1 X174.388 Y132.457 E39.77331
G1 X170.213 Y132.457 E40.01039
G1 X170.18 Y132.837 E40.03205
G1 X170.141 Y132.961 E40.03942
G1 X170.03 Y133.118 E40.05033
G1 X169.979 Y133.161 E40.05415
G1 X169.864 Y133.221 E40.0615
G1 X169.688 Y133.252 E40.07167
G1 X169.505 Y133.22 E40.0822
G1 X169.444 Y133.192 E40.08601
G1 X169.341 Y133.113 E40.09338
G1 X169.235 Y132.961 E40.10391
G1 X169.196 Y132.837 E40.11128
G1 X169.163 Y132.457 E40.13295
G1 X160.236 Y132.457 E40.63986
G1 X160.152 Y132.933 E40.66731
G1 X160.092 Y133.048 E40.67467
G1 X159.979 Y133.161 E40.68377
G1 X159.864 Y133.221 E40.69113
G1 X159.688 Y133.252 E40.7013
G1 X159.505 Y133.22 E40.71182
G1 X159.444 Y133.192 E40.71563
G1 X159.283 Y133.048 E40.72789
G1 X159.223 Y132.933 E40.73525
G1 X159.139 Y132.457 E40.76271
G1 X130.088 Y132.457 E42.41245
G1 X130.088 Y100.757 E44.21258
G1 X130.398 Y100.757 E44.23018
G1 X131.006 Y101.059 F9000
G1 X132.997 Y102.642
;TYPE:Solid infill
;WIDTH:0.600655
G1 F1680
G1 X133.857 Y103.502 E44.29933
G1 X133.857 Y104.275 E44.34331
G1 X132.469 Y102.888 E44.45488
G1 X132.218 Y102.888 E44.46914
G1 X132.218 Y103.411 E44.49886
G1 X133.857 Y105.049 E44.63061
G1 X133.857 Y105.823 E44.67459
G1 X132.218 Y104.184 E44.80633
G1 X132.218 Y104.958 E44.85032
G1 X133.857 Y106.596 E44.98206
G1 X133.857 Y107.37 E45.02604
G1 X132.218 Y105.731 E45.15779
G1 X132.218 Y106.505 E45.20177
G1 X133.857 Y108.143 E45.33351
G1 X133.857 Y108.917 E45.37749
G1 X132.218 Y107.278 E45.50924
G1 X132.218 Y108.052 E45.55322
G1 X133.857 Y109.691 E45.68496
G1 X133.857 Y110.464 E45.72895
G1 X132.218 Y108.826 E45.86069
G1 X132.218 Y109.599 E45.90467
G1 X133.857 Y111.238 E46.03642
G1 X133.857 Y112.011 E46.0804
G1 X132.218 Y110.373 E46.21214
G1 X132.218 Y111.146 E46.25612
G1 X133.857 Y112.785 E46.38787
G1 X133.857 Y113.558 E46.43185
G1 X132.218 Y111.92 E46.56359
G1 X132.218 Y112.693 E46.60758
G1 X133.857 Y114.332 E46.73932
G1 X133.857 Y115.106 E46.7833
G1 X132.218 Y113.467 E46.91505
G1 X132.218 Y114.241 E46.95903
G1 X133.857 Y115.879 E47.09077
G1 X133.857 Y116.653 E47.13475
G1 X132.218 Y115.014 E47.2665
G1 X132.218 Y115.788 E47.31048
G1 X133.857 Y117.426 E47.44222
G1 X133.857 Y118.2 E47.4862
G1 X132.218 Y116.561 E47.61795
G1 X132.218 Y117.335 E47.66193
G1 X133.857 Y118.974 E47.79368
G1 X133.857 Y119.747 E47.83766
G1 X132.218 Y118.109 E47.9694
G1 X132.218 Y118.882 E48.01338
G1 X133.857 Y120.521 E48.14513
G1 X133.857 Y121.294 E48.18911
G1 X132.218 Y119.656 E48.32085
G1 X132.218 Y120.429 E48.36483
G1 X133.857 Y122.068 E48.49658
G1 X133.857 Y122.841 E48.54056
G1 X132.218 Y121.203 E48.6723
G1 X132.218 Y121.976 E48.71629
G1 X133.857 Y123.615 E48.84803
G1 X133.857 Y124.389 E48.89201
G1 X132.218 Y122.75 E49.02376
G1 X132.218 Y123.524 E49.06774
G1 X133.857 Y125.162 E49.19948
G1 X133.857 Y125.936 E49.24346
G1 X132.218 Y124.297 E49.37521
G1 X132.218 Y125.071 E49.41919
G1 X133.857 Y126.709 E49.55093
G1 X133.857 Y127.483 E49.59492
G1 X132.218 Y125.844 E49.72666
G1 X132.218 Y126.618 E49.77064
G1 X133.857 Y128.256 E49.90239
G1 X133.857 Y129.03 E49.94637
G1 X132.218 Y127.392 E50.07811
G1 X132.218 Y128.165 E50.12209
G1 X133.857 Y129.804 E50.25384
G1 X133.857 Y130.326 E50.28355
G1 X133.606 Y130.326 E50.29782
G1 X132.218 Y128.939 E50.40939
G1 X132.218 Y129.712 E50.45337
G1 X133.078 Y130.572 E50.5225
G10 ; retract
G92 E0
G1 Z.75 F9000
G1 X195.603 Y103.785
G1 Z.25
G11 ; unretract
G92 E0
;WIDTH:0.618402
G1 F1680
G1 X194.705 Y102.888 E.07451
G1 X193.907 Y102.888 E.12139
G1 X195.357 Y104.338 E.2418
G1 X195.357 Y105.137 E.28868
G1 X193.718 Y103.498 E.4247
G1 X193.718 Y104.297 E.47158
G1 X195.357 Y105.936 E.6076
G1 X195.357 Y106.734 E.65448
G1 X193.718 Y105.096 E.7905
G1 X193.718 Y105.894 E.83738
G1 X195.357 Y107.533 E.9734
G1 X195.357 Y108.332 E1.02028
G1 X193.718 Y106.693 E1.1563
G1 X193.718 Y107.492 E1.20318
G1 X195.357 Y109.13 E1.3392
G1 X195.357 Y109.929 E1.38608
G1 X193.718 Y108.29 E1.5221
G1 X193.718 Y109.089 E1.56898
G1 X195.357 Y110.728 E1.705
G1 X195.357 Y111.526 E1.75188
G1 X193.718 Y109.888 E1.8879
G1 X193.718 Y110.686 E1.93478
G1 X195.357 Y112.325 E2.0708
G1 X195.357 Y113.124 E2.11768
G1 X193.718 Y111.485 E2.2537
G1 X193.718 Y112.284 E2.30058
G1 X195.357 Y113.922 E2.4366
G1 X195.357 Y114.721 E2.48348
G1 X193.718 Y113.083 E2.6195
G1 X193.718 Y113.881 E2.66638
G1 X195.357 Y115.52 E2.8024
G1 X195.357 Y116.318 E2.84929
G1 X193.718 Y114.68 E2.9853
G1 X193.718 Y115.479 E3.03219
G1 X195.357 Y117.117 E3.1682
G1 X195.357 Y117.916 E3.21509
G1 X193.718 Y116.277 E3.3511
G1 X193.718 Y117.076 E3.39799
G1 X195.357 Y118.714 E3.534
G1 X195.357 Y119.513 E3.58089
G1 X193.718 Y117.875 E3.71691
G1 X193.718 Y118.673 E3.76379
G1 X195.357 Y120.312 E3.89981
G1 X195.357 Y121.11 E3.94669
G1 X193.718 Y119.472 E4.08271
G1 X193.718 Y120.271 E4.12959
G1 X195.169 Y121.721 E4.24998
G1 X194.37 Y121.721 E4.29686
G1 X193.473 Y120.823 E4.37136
;LAYER_CHANGE
;Z:0.5
;HEIGHT:0.25
G1 Z.5 F9000
M117 Layer 2
M104 S220 ; set temperature
G10 ; retract
G92 E0
G1 Z1
G1 X156.164 Y102.396
G1 Z.5
G11 ; unretract
G92 E0
;TYPE:Perimeter
;WIDTH:0.6
G1 F1800
G1 X172.749 Y102.396 E.94176
G1 X172.749 Y102.743 E.96146
G1 X156.982 Y102.743 E1.85681
G1 X156.247 Y102.431 E1.90212
G1 X153.479 Y101.85 F9000
G1 F3600
G1 X173.295 Y101.85 E3.0274
G1 X173.295 Y103.289 E3.10915
G1 X156.871 Y103.289 E4.04184
G1 X153.562 Y101.885 E4.24596
G1 X193.227 Y102.396 F9000
G1 F3600
G1 X195.849 Y102.396 E4.39484
G1 X195.849 Y122.682 E5.54684
G1 X193.227 Y122.682 E5.69573
G1 X193.227 Y102.486 E6.84261
G1 X192.68 Y101.85 F9000
G1 F3600
G1 X196.395 Y101.85 E7.05355
G1 X196.395 Y123.229 E8.26759
G1 X192.68 Y123.229 E8.47853
G1 X192.68 Y101.94 E9.68746
G1 X131.727 Y102.396 F9000
G1 F3600
G1 X134.349 Y102.396 E9.83635
G1 X134.349 Y130.818 E11.45033
G1 X131.727 Y130.818 E11.59922
G1 X131.727 Y102.486 E13.20808
G1 X131.18 Y101.85 F9000
G1 F3600
G1 X134.895 Y101.85 E13.41902
G1 X134.895 Y131.364 E15.09505
G1 X131.18 Y131.364 E15.30599
G1 X131.18 Y101.94 E16.97691
G1 X130.634 Y101.303 F9000
G1 F3600
G1 X159.598 Y101.303 E18.62166
G1 X159.682 Y100.824 E18.6493
G1 X159.746 Y101.303 E18.67675
G1 X169.663 Y101.303 E19.23994
G1 X169.696 Y100.928 E19.26134
G1 X169.746 Y101.303 E19.28283
G1 X196.941 Y101.303 E20.82719
G1 X196.941 Y123.775 E22.10328
G1 X192.134 Y123.775 E22.37627
G1 X192.134 Y102.011 E23.6122
G1 X173.841 Y102.011 E24.65098
G1 X173.841 Y104.011 E24.76455
G1 X173.134 Y104.011 E24.80472
G1 X173.134 Y103.836 E24.81465
G1 X156.759 Y103.836 E25.74452
G1 X152.46 Y102.011 E26.00975
G1 X135.441 Y102.011 E26.97617
G1 X135.441 Y131.203 E28.63392
G1 X173.134 Y131.203 E30.77436
G1 X173.134 Y129.203 E30.88793
G1 X173.841 Y129.203 E30.92809
G1 X173.841 Y131.911 E31.08183
G1 X169.712 Y131.911 E31.31631
G1 X169.688 Y132.19 E31.33226
G1 X169.663 Y131.911 E31.3482
G1 X159.778 Y131.911 E31.90958
G1 X159.688 Y132.42 E31.93895
G1 X159.598 Y131.911 E31.96833
G1 X130.634 Y131.911 E33.61308
G1 X130.634 Y101.393 E35.34605
M73 P2 R57
G1 X131.688 Y100.757 F9000
;TYPE:External perimeter
G1 F2520
G1 X159.139 Y100.757 E36.90494
G1 X159.223 Y100.281 E36.93239
G1 X159.283 Y100.166 E36.93972
G1 X159.327 Y100.114 E36.94357
G1 X159.484 Y100.004 E36.95448
G1 X159.688 Y99.958 E36.96635
G1 X159.892 Y100.004 E36.97821
G1 X160.038 Y100.107 E36.98837
G1 X160.144 Y100.259 E36.9989
G1 X160.167 Y100.322 E37.00271
G1 X160.225 Y100.757 E37.02764
G1 X169.163 Y100.757 E37.5352
G1 X169.196 Y100.377 E37.55686
G1 X169.235 Y100.254 E37.5642
G1 X169.341 Y100.101 E37.57477
G1 X169.517 Y99.988 E37.58663
G1 X169.724 Y99.962 E37.59846
G1 X169.897 Y100.008 E37.60866
G1 X170.038 Y100.107 E37.61842
G1 X170.144 Y100.259 E37.62895
G1 X170.167 Y100.322 E37.63276
G1 X170.225 Y100.757 E37.65769
G1 X197.488 Y100.757 E39.20587
G1 X197.488 Y124.322 E40.54401
G1 X191.588 Y124.322 E40.87905
G1 X191.588 Y102.557 E42.11498
G1 X174.388 Y102.557 E43.09171
G1 X174.388 Y104.557 E43.20528
G1 X172.588 Y104.557 E43.30749
G1 X172.588 Y104.382 E43.31743
G1 X156.648 Y104.382 E44.22258
G1 X152.349 Y102.557 E44.48782
G1 X135.988 Y102.557 E45.4169
G1 X135.988 Y130.657 E47.0126
G1 X172.588 Y130.657 E49.09098
G1 X172.588 Y128.657 E49.20456
G1 X174.388 Y128.657 E49.30677
G1 X174.388 Y132.457 E49.52256
G1 X170.213 Y132.457 E49.75964
G1 X170.18 Y132.837 E49.7813
G1 X170.141 Y132.961 E49.78867
G1 X170.03 Y133.118 E49.79959
G1 X169.979 Y133.161 E49.8034
G1 X169.864 Y133.221 E49.81073
G1 X169.688 Y133.252 E49.82092
G1 X169.512 Y133.221 E49.83107
G1 X169.397 Y133.161 E49.83844
G1 X169.345 Y133.118 E49.84225
G1 X169.235 Y132.961 E49.85316
G1 X169.196 Y132.837 E49.86054
G1 X169.163 Y132.457 E49.8822
G1 X160.236 Y132.457 E50.38911
G1 X160.152 Y132.933 E50.41656
G1 X160.092 Y133.048 E50.4239
G1 X159.932 Y133.192 E50.43615
G1 X159.87 Y133.22 E50.44
G1 X159.681 Y133.254 E50.45091
G1 X159.489 Y133.214 E50.46203
G1 X159.332 Y133.103 E50.47294
G1 X159.253 Y133 E50.48031
G1 X159.225 Y132.94 E50.48412
G1 X159.139 Y132.457 E50.51195
G1 X130.088 Y132.457 E52.16169
G1 X130.088 Y100.757 E53.96182
G1 X131.598 Y100.757 E54.04757
G1 X132.202 Y101.066 F9000
G1 X134.103 Y129.466
;TYPE:Solid infill
;WIDTH:0.600655
G1 F2400
G1 X133.243 Y130.326 E54.11672
G1 X132.469 Y130.326 E54.1607
G1 X133.857 Y128.939 E54.27227
G1 X133.857 Y128.165 E54.31625
G1 X132.218 Y129.804 E54.448
G1 X132.218 Y129.03 E54.49198
G1 X133.857 Y127.391 E54.62372
G1 X133.857 Y126.618 E54.66771
G1 X132.218 Y128.256 E54.79945
G1 X132.218 Y127.483 E54.84343
G1 X133.857 Y125.844 E54.97518
G1 X133.857 Y125.071 E55.01916
G1 X132.218 Y126.709 E55.1509
G1 X132.218 Y125.936 E55.19488
G1 X133.857 Y124.297 E55.32663
G1 X133.857 Y123.524 E55.37061
G1 X132.218 Y125.162 E55.50235
G1 X132.218 Y124.388 E55.54634
G1 X133.857 Y122.75 E55.67808
G1 X133.857 Y121.976 E55.72206
G1 X132.218 Y123.615 E55.85381
G1 X132.218 Y122.841 E55.89779
G1 X133.857 Y121.203 E56.02953
G1 X133.857 Y120.429 E56.07351
G1 X132.218 Y122.068 E56.20526
G1 X132.218 Y121.294 E56.24924
G1 X133.857 Y119.656 E56.38098
G1 X133.857 Y118.882 E56.42496
G1 X132.218 Y120.521 E56.55671
G1 X132.218 Y119.747 E56.60069
G1 X133.857 Y118.108 E56.73243
G1 X133.857 Y117.335 E56.77642
G1 X132.218 Y118.973 E56.90816
G1 X132.218 Y118.2 E56.95214
G1 X133.857 Y116.561 E57.08389
G1 X133.857 Y115.788 E57.12787
G1 X132.218 Y117.426 E57.25961
G1 X132.218 Y116.653 E57.30359
G1 X133.857 Y115.014 E57.43534
G1 X133.857 Y114.241 E57.47932
G1 X132.218 Y115.879 E57.61106
G1 X132.218 Y115.105 E57.65505
G1 X133.857 Y113.467 E57.78679
G1 X133.857 Y112.693 E57.83077
